dist/images/icons/cards.svg

<svg width="16" height="16" viewBox="0 0 16 16" fill="none" xmlns="http://www.w3.org/2000/svg">
<path opacity="0.2" d="M11.5005 5H2.50049C2.22435 5 2.00049 5.22386 2.00049 5.5V12.5C2.00049 12.7761 2.22435 13 2.50049 13H11.5005C11.7766 13 12.0005 12.7761 12.0005 12.5V5.5C12.0005 5.22386 11.7766 5 11.5005 5Z" fill="#4D5A65"/>
<path fill-rule="evenodd" clip-rule="evenodd" d="M1.50049 5.5C1.50049 4.94772 1.9482 4.5 2.50049 4.5H11.5005C12.0528 4.5 12.5005 4.94772 12.5005 5.5V12.5C12.5005 13.0523 12.0528 13.5 11.5005 13.5H2.50049C1.9482 13.5 1.50049 13.0523 1.50049 12.5V5.5ZM11.5005 5.5H2.50049V12.5H11.5005V5.5Z" fill="#112E49"/>
<path fill-rule="evenodd" clip-rule="evenodd" d="M3.50049 3C3.50049 2.72386 3.72435 2.5 4.00049 2.5H13.5005C13.7657 2.5 14.0201 2.60536 14.2076 2.79289C14.3951 2.98043 14.5005 3.23478 14.5005 3.5V11C14.5005 11.2761 14.2766 11.5 14.0005 11.5C13.7243 11.5 13.5005 11.2761 13.5005 11V3.5H4.00049C3.72435 3.5 3.50049 3.27614 3.50049 3Z" fill="#112E49"/>
</svg>

<svg width="16" height="16" fill="none" xmlns="http://www.w3.org/2000/svg"><path opacity=".2" d="M11.5 5h-9a.5.5 0 00-.5.5v7a.5.5 0 00.5.5h9a.5.5 0 00.5-.5v-7a.5.5 0 00-.5-.5z" fill="#4D5A65"/><path fill-rule="evenodd" clip-rule="evenodd" d="M1.5 5.5a1 1 0 011-1h9a1 1 0 011 1v7a1 1 0 01-1 1h-9a1 1 0 01-1-1v-7zm10 0h-9v7h9v-7z" fill="#112E49"/><path fill-rule="evenodd" clip-rule="evenodd" d="M3.5 3a.5.5 0 01.5-.5h9.5a1 1 0 011 1V11a.5.5 0 01-1 0V3.5H4a.5.5 0 01-.5-.5z" fill="#112E49"/></svg>
